X: 11234
T: HOPE THOU NURSE OF YOUNG DESIRE
Q: "Slow."
%R: air, waltz
B: W. Hamilton "Universal Tune-Book" Vol. 1 Glasgow 1844 p.123 #4
S: http://imslp.org/wiki/Hamilton's_Universal_Tune-Book_(Various)
Z: 2016 John Chambers <jc:trillian.mit.edu>
M: 3/4
L: 1/4
K: C
% - - - - - - - - - - - - - - - - - - - - - - - - -
[|\
c2d | (e>f)g | (fe)d | c2z |\
d2d | e2d | eg^f | g2z |\
zag | =f2e | (d/e/f/e/)(d/c/) | B2z |\
c2d | (e>f)g | (fe)d | c2"^Fin."z H|]
[|\
c2B | (c>de) | (dc)B | c2z |\
d2d | e2d | (cB)A | G2z |\
zAG | (Ff)e | (Ad)c | B2z |\
c2B | (cd)e | (dc)B | c2"^D.C."z |]
% - - - - - - - - - - - - - - - - - - - - - - - - -

%%sep 1 1 500
%%sep 1 1 500

